**kern	**kern	**kern
*staff3	*staff2	*staff1
*tb32	*tb32	*tb32
*clefF4	*clefF4	*clefG2
*k[f#c#g#]	*k[f#c#g#]	*k[f#c#g#]
*M2/4	*M2/4	*M2/4
*A:	*A:	*A:
8r	8r	16ee
.	.	16bJJ)
=87	=87	=87
4A	2r	8cc#'L
.	.	8ee'J
8r	.	(16dd#LL
.	.	16ee
(8B	.	16ff#
.	.	16dd#JJ)
=88	=88	=88
8G#'L)	2r	8ee'L
8B'J	.	8gg#'J
(16ELL	.	8b'
16F#	.	.
16G#	.	8r
16EJJ)	.	.
=89	=89	=89
4A'	2r	8cc#'L
.	.	8ee'J
8r	.	(16dd#LL
.	.	16ee
*clefG2	*	*
(8a	.	16ff#
.	.	16dd#JJ)
=90	=90	=90
8g#'L)	2r	8ee'L
8b'J	.	8gg#'J
(16eLL	.	8bb'
16f#	.	.
16g#	.	8r
16eJJ)	.	.
=91	=91	=91
4a'	2r	8cc#'L
.	.	8ee'J
8r	.	(16dd#LL
.	.	16ee
*clefF4	*	*
(8B	.	16ff#
.	.	16dd#JJ)
=92	=92	=92
8G#'L)	2r	8ee'L
8B'J	.	8gg#'J
(16ELL	.	8b'
16F#	.	.
16G#	.	8r
16EJJ)	.	.
=93	=93	=93
4A'	2r	8cc#'L
.	.	8ee'J
8r	.	(16dd#LL
.	.	16ee
*clefG2	*	*
(8a	.	16ff#
.	.	16dd#JJ)
=94	=94	=94
4g#')	2r	8ee'L
.	.	8gg#'J
8r	.	(16ff#LL
.	.	16gg#
(8d#	.	16aa
.	.	16ff#JJ)
=95	=95	=95
8e')	2r	16gg#'LL
.	.	16b
8g#'L	.	16bb
.	.	16bJJ
8f#'	.	16dd#LL
.	.	16b
8a'J	.	16ff#
.	.	16bJJ
=96	=96	=96
2r;	2r;	2r;
=97	=97	=97
16g#LL	4r	4r
16b	.	.
16e	.	.
16bJJ	.	.
*-	*-	*-
